X:185 
T:Schottische Polka, The 
F:file ID: cre.5/185schot
B:CRE5.088 (Polca Schottische)
M:2/4
L:1/16
Q:120
R:polka
K:G
dc|B2d2 g2B2|bagb a2e2|fedf e2F2|edce d2c2|
B2d2 g2B2|bagb a2e2|fede cFBA|B2G2G2:|
K:D
FG|AGAd fef2|AGAd fef2|ede2 dcd2|cBAB AGFG|
AGAd fef2|AGAd fef2|ede2 dcd2|cBce d2 :|
K:G (repeat of part A)
dc|B2d2 g2B2|bagb a2e2|fedf e2F2|edce d2c2|
B2d2 g2B2|bagb a2e2|fede cFBA|B2G2G4|]

%%%

